dist/img/svg/youtube.svg

<svg width="24" height="16" viewBox="0 0 24 16" fill="none" xmlns="http://www.w3.org/2000/svg">
<path fill-rule="evenodd" clip-rule="evenodd" d="M9.95459 10.9371V5.06311C11.9602 6.04827 13.9055 7.00308 15.9344 7.99861C13.9179 8.98969 11.9777 9.94302 9.95459 10.9371ZM23.1335 4.16381C23.0964 3.27858 22.8541 2.40962 22.2118 1.69611C21.4217 0.819011 20.3203 0.741294 19.235 0.701325C16.8219 0.613245 14.4067 0.574016 11.4343 0.5C9.26931 0.581418 6.54711 0.662836 3.82928 0.793105C2.60349 0.852318 1.68178 1.43409 1.27222 2.55174C1.05761 3.14017 0.907025 3.77449 0.879381 4.394C0.792812 6.33916 0.731704 8.28727 0.754983 10.2332C0.765895 11.1798 0.923757 12.1369 1.12672 13.0673C1.3857 14.253 2.21575 14.9806 3.49028 15.1745C4.29268 15.2966 5.11036 15.3603 5.92294 15.3877C10.57 15.5446 15.2164 15.5557 19.862 15.3011C21.4465 15.2145 22.55 14.4558 22.9123 13.0036C23.1051 12.2279 23.2433 11.4189 23.2477 10.6247C23.2601 8.47083 23.223 6.31547 23.1335 4.16381Z" fill="white"/>
</svg>

<svg width="24" height="16" viewBox="0 0 24 16" fill="none" xmlns="http://www.w3.org/2000/svg"><path fill-rule="evenodd" clip-rule="evenodd" d="M9.955 10.937V5.063L15.935 8l-5.98 2.938zm13.179-6.773c-.038-.885-.28-1.754-.922-2.468-.79-.877-1.892-.955-2.977-.995-2.413-.088-4.828-.127-7.8-.201-2.166.081-4.888.163-7.606.293-1.226.06-2.147.641-2.557 1.759A6.282 6.282 0 0 0 .88 4.394C.793 6.339.732 8.287.755 10.234c.01.946.169 1.903.372 2.833.259 1.186 1.089 1.914 2.363 2.107.803.123 1.62.186 2.433.214 4.647.157 9.293.168 13.939-.087 1.585-.087 2.688-.845 3.05-2.297.193-.776.331-1.585.336-2.38a136.58 136.58 0 0 0-.114-6.46z" fill="#fff"/></svg>
